fs/number_symbol_dismiss_24_filled.svg

<svg viewBox="0 0 24 24" fill="none" xmlns="http://www.w3.org/2000/svg" height="1em" width="1em">
  <path d="M10.9848 3.16464C11.0756 2.61988 10.7076 2.10462 10.1629 2.01378C9.6181 1.92293 9.10284 2.29091 9.012 2.83567L8.15118 7.99772L3.99937 8.00016C3.44709 8.00049 2.99963 8.44847 2.99996 9.00075C3.00028 9.55304 3.44826 10.0005 4.00055 10.0002L7.81763 9.99791L7.15053 13.9983L2.99955 14.0002C2.44727 14.0004 1.99975 14.4483 2 15.0006C2.00025 15.5529 2.44816 16.0004 3.00045 16.0002L6.81699 15.9985L6.01034 20.8357C5.91949 21.3804 6.28747 21.8957 6.83223 21.9865C7.37699 22.0774 7.89225 21.7094 7.9831 21.1646L8.84476 15.9976L11.1748 15.9965C11.3455 15.2759 11.6361 14.6017 12.0244 13.9961L9.1783 13.9974L9.84545 9.99672L14.8206 9.99379L14.5337 11.715C15.1895 11.3781 15.91 11.1494 16.6717 11.0525L16.8483 9.9926L21.0005 9.99015C21.5528 9.98983 22.0003 9.54185 22 8.98956C21.9996 8.43728 21.5517 7.98983 20.9994 7.99015L17.1817 7.9924L17.9863 3.16456C18.0771 2.61978 17.7091 2.10456 17.1644 2.01376C16.6196 1.92297 16.1044 2.29099 16.0136 2.83576L15.1539 7.99359L10.179 7.99652L10.9848 3.16464ZM23 17.5002C23 20.5378 20.5376 23.0002 17.5 23.0002C14.4624 23.0002 12 20.5378 12 17.5002C12 14.4627 14.4624 12.0002 17.5 12.0002C20.5376 12.0002 23 14.4627 23 17.5002ZM15.8536 15.1467C15.6583 14.9514 15.3417 14.9514 15.1464 15.1467C14.9512 15.342 14.9512 15.6585 15.1464 15.8538L16.7929 17.5002L15.1464 19.1467C14.9512 19.342 14.9512 19.6585 15.1464 19.8538C15.3417 20.0491 15.6583 20.0491 15.8536 19.8538L17.5 18.2074L19.1464 19.8538C19.3417 20.0491 19.6583 20.0491 19.8536 19.8538C20.0488 19.6585 20.0488 19.342 19.8536 19.1467L18.2071 17.5002L19.8536 15.8538C20.0488 15.6585 20.0488 15.342 19.8536 15.1467C19.6583 14.9514 19.3417 14.9514 19.1464 15.1467L17.5 16.7931L15.8536 15.1467Z" fill="#212121"/>
</svg>

<svg viewBox="0 0 24 24" fill="none" xmlns="http://www.w3.org/2000/svg" height="1em" width="1em">
  <path d="M10.985 3.165a1 1 0 0 0-1.973-.33l-.86 5.163L3.998 8A1 1 0 0 0 4 10l3.817-.002-.667 4L3 14a1 1 0 1 0 0 2l3.817-.002-.807 4.838a1 1 0 1 0 1.973.329l.862-5.167 2.33-.002c.17-.72.461-1.394.85-2l-2.847.001.667-4 4.976-.003-.287 1.721a6.457 6.457 0 0 1 2.138-.662l.176-1.06L21 9.99a1 1 0 0 0 0-2l-3.818.002.804-4.827a1 1 0 1 0-1.972-.33l-.86 5.159-4.975.003.806-4.832ZM23 17.5a5.5 5.5 0 1 1-11 0 5.5 5.5 0 0 1 11 0Zm-7.146-2.353a.5.5 0 0 0-.708.707l1.647 1.646-1.647 1.647a.5.5 0 0 0 .708.707l1.646-1.647 1.646 1.647a.5.5 0 0 0 .708-.707L18.207 17.5l1.647-1.646a.5.5 0 0 0-.708-.707L17.5 16.793l-1.646-1.646Z" fill="#212121"/>
</svg>
